X: 1
T: Crabbit Shona
C: Angus Grant
F: http://music.gordfisch.net/montrealsession/assets/abc/jigs.abc
N: Recommended tune for the dance by the same name.
S: Harriett Bartlett: Eyes Wide Open
Z: robin.beech@mcgill.ca
R: jig
M: 6/8
L: 1/8
K: D
A |\
"D"AdA FAA | "A7"GAE AEA | "D"AdA FAA | "G"GBB "(A7)"BAG |\
"D"AdA FAA | "A7"GAE AEA | "D"AdA "G"BAG | "A7"FAE "D"D2 :|
|: A |\
"D"dAA fAA | AaA fed | "A7"cAA eAA | AgA ecA |\
"D"dAA fAA | AaA fed | "A7"cAA afe | "D"fdd d2 :|
